src/assets/outline/Star1.svg

<svg width="24" height="24" viewBox="0 0 24 24"  xmlns="http://www.w3.org/2000/svg">
<path d="M9.4802 20.6896C8.9802 20.6896 8.6302 20.5196 8.4202 20.3596C8.0202 20.0696 7.40019 19.3196 7.79019 17.6396L8.36017 15.1796C8.41017 14.9696 8.30018 14.5896 8.15018 14.4296L6.16019 12.4396C5.11019 11.3896 5.20018 10.4796 5.34018 10.0296C5.48018 9.57957 5.94018 8.78957 7.40018 8.53957L9.9502 8.11957C10.1402 8.08957 10.4502 7.85958 10.5302 7.68958L11.9402 4.86957C12.6202 3.50957 13.5202 3.30957 14.0002 3.30957C14.4802 3.30957 15.3802 3.50957 16.0602 4.86957L17.4702 7.68958C17.5602 7.85958 17.8602 8.08957 18.0502 8.11957L20.6002 8.53957C22.0602 8.77957 22.5202 9.57957 22.6602 10.0296C22.8002 10.4796 22.8902 11.3896 21.8402 12.4396L19.8502 14.4296C19.7002 14.5796 19.5902 14.9696 19.6402 15.1796L20.2102 17.6396C20.6002 19.3296 19.9802 20.0696 19.5802 20.3596C19.1802 20.6496 18.2902 21.0196 16.7902 20.1296L14.4002 18.7096C14.2002 18.5896 13.7802 18.5896 13.5802 18.7096L11.1902 20.1296C10.5002 20.5496 9.9202 20.6896 9.4802 20.6896ZM14.0002 4.80957C13.8402 4.80957 13.5502 4.99957 13.2802 5.53957L11.8702 8.35957C11.5702 8.96957 10.8602 9.48958 10.1902 9.59958L7.6402 10.0196C7.0702 10.1196 6.8102 10.3296 6.7602 10.4896C6.7102 10.6496 6.80018 10.9696 7.21018 11.3796L9.2002 13.3696C9.7102 13.8796 9.98019 14.8096 9.82019 15.5096L9.25019 17.9696C9.08019 18.6796 9.19017 19.0596 9.30017 19.1496C9.41017 19.2296 9.81018 19.2196 10.4302 18.8396L12.8302 17.4196C13.5002 17.0196 14.5102 17.0196 15.1702 17.4196L17.5602 18.8396C18.1902 19.2096 18.5902 19.2296 18.7002 19.1496C18.8102 19.0696 18.9202 18.6896 18.7502 17.9696L18.1802 15.5096C18.0202 14.7996 18.2802 13.8796 18.8002 13.3696L20.7902 11.3796C21.2002 10.9696 21.2902 10.6396 21.2402 10.4896C21.1902 10.3396 20.9302 10.1196 20.3602 10.0196L17.8102 9.59958C17.1402 9.48958 16.4302 8.96957 16.1302 8.35957L14.7202 5.53957C14.4502 4.99957 14.1602 4.80957 14.0002 4.80957Z" />
<path d="M8 5.75H2C1.59 5.75 1.25 5.41 1.25 5C1.25 4.59 1.59 4.25 2 4.25H8C8.41 4.25 8.75 4.59 8.75 5C8.75 5.41 8.41 5.75 8 5.75Z" />
<path d="M5 19.75H2C1.59 19.75 1.25 19.41 1.25 19C1.25 18.59 1.59 18.25 2 18.25H5C5.41 18.25 5.75 18.59 5.75 19C5.75 19.41 5.41 19.75 5 19.75Z" />
<path d="M3 12.75H2C1.59 12.75 1.25 12.41 1.25 12C1.25 11.59 1.59 11.25 2 11.25H3C3.41 11.25 3.75 11.59 3.75 12C3.75 12.41 3.41 12.75 3 12.75Z" />
</svg>

<?xml version="1.0" encoding="UTF-8"?>
<svg width="24" height="24" viewBox="0 0 24 24" xmlns="http://www.w3.org/2000/svg">
 <path d="m9.4802 20.69c-0.5 0-0.85-0.17-1.06-0.33-0.4-0.29-1.02-1.04-0.63001-2.72l0.56998-2.46c0.05-0.21-0.05999-0.59-0.20999-0.75l-1.99-1.99c-1.05-1.05-0.96001-1.96-0.82001-2.41 0.14-0.45003 0.6-1.24 2.06-1.49l2.55-0.42c0.19-0.03 0.5-0.25999 0.58-0.42999l1.41-2.82c0.68-1.36 1.58-1.56 2.06-1.56s1.38 0.2 2.06 1.56l1.41 2.82c0.09 0.17 0.39 0.39999 0.58 0.42999l2.55 0.42c1.46 0.24 1.92 1.04 2.06 1.49 0.14 0.45 0.23 1.36-0.82 2.41l-1.99 1.99c-0.15 0.15-0.26 0.54-0.21 0.75l0.57 2.46c0.39 1.69-0.23 2.43-0.63 2.72s-1.29 0.66-2.79-0.23l-2.39-1.42c-0.2-0.12-0.62-0.12-0.82 0l-2.39 1.42c-0.69 0.42-1.27 0.56-1.71 0.56zm4.52-15.88c-0.16 0-0.45 0.19-0.72 0.73l-1.41 2.82c-0.3 0.61-1.01 1.13-1.68 1.24l-2.55 0.42002c-0.57 0.1-0.83 0.31-0.88 0.47s0.03998 0.48 0.44998 0.89l1.99 1.99c0.51 0.51 0.77999 1.44 0.61999 2.14l-0.57 2.46c-0.17 0.71-0.06002 1.09 0.04998 1.18 0.11 0.08 0.51001 0.07 1.13-0.31l2.4-1.42c0.67-0.4 1.68-0.4 2.34 0l2.39 1.42c0.63 0.37 1.03 0.39 1.14 0.31s0.22-0.46 0.05-1.18l-0.57-2.46c-0.16-0.71 0.1-1.63 0.62-2.14l1.99-1.99c0.41-0.41 0.5-0.74 0.45-0.89s-0.31-0.37-0.88-0.47l-2.55-0.42002c-0.67-0.11-1.38-0.63001-1.68-1.24l-1.41-2.82c-0.27-0.54-0.56-0.73-0.72-0.73z"/>
 <path d="m8 5.75h-6c-0.41 0-0.75-0.34-0.75-0.75s0.34-0.75 0.75-0.75h6c0.41 0 0.75 0.34 0.75 0.75s-0.34 0.75-0.75 0.75z"/>
 <path d="m5 19.75h-3c-0.41 0-0.75-0.34-0.75-0.75s0.34-0.75 0.75-0.75h3c0.41 0 0.75 0.34 0.75 0.75s-0.34 0.75-0.75 0.75z"/>
 <path d="m3 12.75h-1c-0.41 0-0.75-0.34-0.75-0.75s0.34-0.75 0.75-0.75h1c0.41 0 0.75 0.34 0.75 0.75s-0.34 0.75-0.75 0.75z"/>
</svg>
